X:1
T:The Queen of Hearts.
B:Songs of the West by S. Baring-Gould.
S:
M:6/8
L:1/8
K:Eb
G1/2 G1/2|A2 G e2 d1/2 c1/2|(=Bc) d G1/2 G3/2 G1/2 G1/2|
w:To the Queen of Hearts he's the Ace *of sor-row, He is
A2 G F2 E1/2 F1/2|G2 G C1/2 C3/2 _B|
w:here to-day, he is gone to-mor-row; Young
c2 d e3/2 d1/2 c|=B2 d c2 _B1/2 B1/2|
w:men are plen-ty, but sweet-hearts few, If my 
A2 G F2 _d|c2 =B c2 z||
w:love leave me, what shall I do?